src/lib/packages/icons/src/assets/line/caret-down-square.svg

<svg width="24" height="24" viewBox="0 0 24 24" fill="none" xmlns="http://www.w3.org/2000/svg">
<path d="M17.625 2.25H6.375C3.715 2.25 2.25 3.715 2.25 6.375V17.625C2.25 20.285 3.715 21.75 6.375 21.75H17.625C20.285 21.75 21.75 20.285 21.75 17.625V6.375C21.75 3.715 20.285 2.25 17.625 2.25ZM20.25 17.625C20.25 19.465 19.465 20.25 17.625 20.25H6.375C4.535 20.25 3.75 19.465 3.75 17.625V6.375C3.75 4.535 4.535 3.75 6.375 3.75H17.625C19.465 3.75 20.25 4.535 20.25 6.375V17.625ZM15.0991 9.08301H8.9021C8.2531 9.08301 7.67901 9.44789 7.40601 10.0359C7.13401 10.6209 7.22292 11.2909 7.63892 11.7849L10.5591 15.248C10.9181 15.673 11.444 15.916 12 15.916C12.556 15.916 13.0819 15.672 13.4409 15.248L16.3611 11.7859C16.7771 11.2919 16.867 10.6221 16.595 10.0371C16.322 9.44911 15.7491 9.08301 15.0991 9.08301ZM15.2151 10.8181L12.2949 14.28C12.1939 14.398 12.067 14.416 12 14.416C11.933 14.416 11.8051 14.398 11.7051 14.28L8.78491 10.8181C8.77091 10.8011 8.72692 10.749 8.76392 10.668C8.78992 10.612 8.83588 10.583 8.90088 10.583H15.0979C15.1619 10.583 15.2081 10.612 15.2351 10.668C15.2721 10.75 15.2291 10.8011 15.2151 10.8181Z" fill="currentColor"/>
</svg>

<svg xmlns="http://www.w3.org/2000/svg" width="24" height="24" fill="none"><path fill="currentColor" d="M17.625 2.25H6.375c-2.66 0-4.125 1.465-4.125 4.125v11.25c0 2.66 1.465 4.125 4.125 4.125h11.25c2.66 0 4.125-1.465 4.125-4.125V6.375c0-2.66-1.465-4.125-4.125-4.125Zm2.625 15.375c0 1.84-.785 2.625-2.625 2.625H6.375c-1.84 0-2.625-.785-2.625-2.625V6.375c0-1.84.785-2.625 2.625-2.625h11.25c1.84 0 2.625.785 2.625 2.625v11.25ZM15.1 9.083H8.901c-.649 0-1.223.365-1.496.953a1.625 1.625 0 0 0 .233 1.749l2.92 3.463a1.886 1.886 0 0 0 2.882 0l2.92-3.462a1.625 1.625 0 0 0 .234-1.749 1.633 1.633 0 0 0-1.496-.954Zm.115 1.735-2.92 3.462a.384.384 0 0 1-.295.136.383.383 0 0 1-.295-.136l-2.92-3.462c-.014-.017-.058-.069-.021-.15a.14.14 0 0 1 .137-.085h6.197c.064 0 .11.029.137.085.037.082-.006.133-.02.15Z"/></svg>
